azure-icons/Media-File.svg

<svg xmlns="http://www.w3.org/2000/svg" viewBox="0 0 18 18"><defs><linearGradient id="a" x1="9" y1="17.5" x2="9" y2=".5" gradientUnits="userSpaceOnUse"><stop offset="0" stop-color="#0078d4"/><stop offset=".817" stop-color="#5ea0ef"/></linearGradient></defs><path d="M9.966.627H2.731a.571.571 0 00-.571.573v15.6a.571.571 0 00.571.572h12.538a.571.571 0 00.571-.572V6.475a.571.571 0 00-.571-.572h-4.161a.571.571 0 01-.571-.571V1.2a.572.572 0 00-.571-.573z" fill="#fff"/><path d="M9.7 1.357v3.919a1.438 1.438 0 001.436 1.438h3.947v9.929H2.915V1.357H9.7M9.978.5h-7.34a.581.581 0 00-.58.581v15.838a.581.581 0 00.58.581h12.724a.581.581 0 00.58-.581V6.437a.58.58 0 00-.58-.58h-4.224a.58.58 0 01-.58-.581V1.081A.581.581 0 009.978.5z" fill="url(#a)"/><path d="M15.72 5.972L10.358.627v4.355a.984.984 0 00.978.99z" fill="#0078d4"/><path d="M4.639 5.231v3.544a.285.285 0 00.426.247l3.1-1.772a.284.284 0 000-.494l-3.1-1.772a.285.285 0 00-.426.247z" fill="#32bedd"/><rect x="4.588" y="10.418" width="7.37" height=".989" rx=".444" fill="#5ea0ef"/><rect x="4.588" y="12.189" width="7.37" height=".989" rx=".444" fill="#5ea0ef"/><rect x="4.588" y="13.961" width="4.645" height=".989" rx=".444" fill="#5ea0ef"/></svg>

<svg xmlns="http://www.w3.org/2000/svg" width="18" height="18" viewBox="0 0 18 18"><defs><linearGradient id="bcca396e-f939-4355-b7b5-51363d97cee0" x1="9" y1="17.5" x2="9" y2="0.5" gradientUnits="userSpaceOnUse"><stop offset="0" stop-color="#0078d4" /><stop offset="0.817" stop-color="#5ea0ef" /></linearGradient></defs><title>MsPortalFx.base.images-61</title><g id="b5641c8f-5957-4500-9380-ed121d5f3f80"><g><g><path d="M9.966.627H2.731A.571.571,0,0,0,2.16,1.2V16.8a.571.571,0,0,0,.571.572H15.269a.571.571,0,0,0,.571-.572V6.475a.571.571,0,0,0-.571-.572H11.108a.571.571,0,0,1-.571-.571V1.2A.572.572,0,0,0,9.966.627Z" fill="#fff" /><path d="M9.7,1.357V5.276a1.438,1.438,0,0,0,1.436,1.438h3.947v9.929H2.915V1.357H9.7M9.978.5H2.638a.581.581,0,0,0-.58.581V16.919a.581.581,0,0,0,.58.581H15.362a.581.581,0,0,0,.58-.581V6.437a.58.58,0,0,0-.58-.58H11.138a.58.58,0,0,1-.58-.581V1.081A.581.581,0,0,0,9.978.5Z" fill="url(#bcca396e-f939-4355-b7b5-51363d97cee0)" /><path d="M15.72,5.972,10.358.627V4.982a.984.984,0,0,0,.978.99Z" fill="#0078d4" /></g><path d="M4.639,5.231V8.775a.285.285,0,0,0,.426.247l3.1-1.772a.284.284,0,0,0,0-.494l-3.1-1.772A.285.285,0,0,0,4.639,5.231Z" fill="#32bedd" /><rect x="4.588" y="10.418" width="7.37" height="0.989" rx="0.444" fill="#5ea0ef" /><rect x="4.588" y="12.189" width="7.37" height="0.989" rx="0.444" fill="#5ea0ef" /><rect x="4.588" y="13.961" width="4.645" height="0.989" rx="0.444" fill="#5ea0ef" /></g></g></svg>
